assets/images/logo.svg

<svg fill="none" height="32" viewBox="0 0 219 32" width="219" xmlns="http://www.w3.org/2000/svg"><path d="m11.5516 17.1422h-3.23447v13.944h-4.15856v-24.68072c0-1.37065-.19407-2.47629-.57296-3.31696-.38814-.84066-1.2753-1.26099-2.661484-1.26099h-.924126v-.913767h12.0229c.9888 0 2.1439.082238 3.4654.255857 1.3215.16447 2.5876.53911 3.789 1.12392 1.2013.57567 2.2179 1.40721 3.0496 2.49459.8317 1.07824 1.2475 2.54026 1.2475 4.36778 0 1.30669-.231 2.42149-.6931 3.33519-.462.9138-1.0535 1.6722-1.7835 2.2662-.7208.5939-1.5248 1.06-2.4027 1.398-.878.3381-1.7189.594-2.5229.7767l4.8517 7.9955c.5822.9777 1.1366 1.7818 1.6449 2.4214.5083.6397 1.0073 1.1697 1.5063 1.5809.4898.4111.9888.7127 1.4786.8954.4898.1828 1.035.3016 1.6172.3656v.9137c-.2495.1188-.6191.2285-1.1366.3198-.5083.0914-1.0535.1371-1.645.1371-.804 0-1.5525-.1097-2.2456-.3198-.6931-.2102-1.3677-.5757-2.0146-1.0965-.6469-.5209-1.303-1.2062-1.9684-2.056-.6653-.8498-1.3677-1.9006-2.107-3.1525zm.231-1.5991c.6469 0 1.3769-.1188 2.1994-.3655s1.5988-.6213 2.3381-1.1239 1.3677-1.1605 1.8759-1.9646c.5083-.8041.7671-1.791.7671-2.95146 0-1.1879-.2588-2.21132-.7671-3.06112-.5082-.8498-1.1366-1.53512-1.8759-2.05597-.7393-.52084-1.5156-.89548-2.3381-1.1422-.8132-.24672-1.5525-.3655-2.1994-.3655-.5822 0-1.1921.04568-1.82977.13706-.6284.09137-1.18288.20103-1.64494.31982v12.11647c.46206.1188 1.00729.2285 1.64494.3199.63767.0913 1.24757.137 1.82977.137zm17.3366.4569c0-2.2205.3327-4.313.9981-6.25928.6653-1.94631 1.6172-3.64592 2.8647-5.0988 1.2476-1.44375 2.7539-2.58595 4.5283-3.40833 1.7743-.822391 3.7519-1.23359 5.9421-1.23359s4.1678.411199 5.9421 1.23359c1.7743.82238 3.2807 1.95545 4.5282 3.40833 1.2476 1.44375 2.1995 3.14335 2.8648 5.0988.6654 1.94628.9981 4.03878.9981 6.25928 0 2.257-.3327 4.3495-.9981 6.2867-.6653 1.9372-1.6172 3.6276-2.8648 5.0714-1.2475 1.4437-2.7539 2.5859-4.5282 3.4083s-3.7519 1.2336-5.9421 1.2336-4.1678-.4112-5.9421-1.2336c-1.7744-.8224-3.2807-1.9554-4.5283-3.4083-1.2475-1.4529-2.1994-3.1342-2.8647-5.0714-.6654-1.9372-.9981-4.0297-.9981-6.2867zm24.0458 0c0-2.1656-.2218-4.1211-.6747-5.8755-.4528-1.75442-1.0904-3.24385-1.9221-4.47743s-1.8483-2.17477-3.0497-2.83268c-1.2013-.65791-2.5598-.98686-4.0661-.98686s-2.8648.32895-4.0662.98686c-1.2013.65791-2.2179 1.5991-3.0496 2.83268s-1.4693 2.73214-1.9222 4.47743c-.4528 1.7453-.6746 3.7099-.6746 5.8755s.2218 4.1211.6746 5.8755c.4529 1.7544 1.0905 3.2439 1.9222 4.4774.8317 1.2336 1.8483 2.1748 3.0496 2.8327 1.2014.6579 2.5599.9869 4.0662.9869s2.8648-.329 4.0661-.9869c1.2014-.6579 2.218-1.5991 3.0497-2.8327.8317-1.2335 1.4693-2.723 1.9221-4.4774.4529-1.7544.6747-3.7099.6747-5.8755zm36.5676 15.0862c-.5268.1554-1.1367.2285-1.8482.2285-.5268 0-1.1367-.064-1.8298-.1828s-1.4047-.3838-2.1255-.8041c-.7208-.4112-1.4324-1.0143-2.1255-1.8092-.6931-.795-1.2845-1.8458-1.7835-3.1525l-1.1552-2.9698h-12.947l-3.6965 8.6808h-2.0793l12.947-30.172469h1.3862l10.1746 24.452269c.3697.8498.7208 1.5809 1.0443 2.1748.3234.5939.6838 1.0782 1.0812 1.4437.3974.3656.8317.6397 1.2938.8224.462.1828 1.0165.3016 1.6634.3655zm-23.1216-10.5174h11.3298l-5.5448-13.25869zm44.755 2.8327c0 1.2793-.221 2.4397-.674 3.4723-.453 1.0325-1.091 1.928-1.922 2.6773-.832.7493-1.839 1.3158-3.032 1.7179-1.192.3929-2.522.5939-4.001.5939-1.266 0-2.5229-.1279-3.7704-.3929-1.2476-.265-2.375-.6305-3.3731-1.1239-.998-.4843-1.8205-1.0783-2.4489-1.7636s-.9519-1.4529-.9519-2.3118v-4.8886h.9242c.5175 3.0793 1.5432 5.2907 3.0588 6.6247 1.5156 1.3433 3.5764 2.0103 6.1823 2.0103.795 0 1.553-.1005 2.273-.3015.721-.201 1.359-.4934 1.904-.8955.545-.402.998-.8863 1.331-1.462s.508-1.2519.508-2.0103c0-1.3432-.425-2.4854-1.275-3.4266s-2.116-1.9006-3.817-2.8784l-5.6831-3.3352c-1.9684-1.1605-3.3639-2.3301-4.1863-3.518-.8133-1.1879-1.2291-2.63164-1.2291-4.34037 0-1.1879.2125-2.257.6469-3.19818.4343-.94117 1.035-1.76355 1.8297-2.44888.7855-.68532 1.7282-1.215298 2.8186-1.580804 1.0905-.365505 2.3196-.5482633 3.6783-.5482633 1.136 0 2.301.1187833 3.493.3655003 1.183.246716 2.255.603087 3.216 1.078247.952.47516 1.737 1.05082 2.356 1.73615.62.68532.925 1.45288.925 2.31182v4.88868h-.925c-.517-3.07943-1.515-5.27246-2.985-6.57914-1.469-1.30668-3.502-1.9646-6.108-1.9646-.6746 0-1.3307.10966-1.9776.31982-.6469.21017-1.2106.52085-1.7004.91377s-.8872.88635-1.1921 1.46203c-.305.57567-.4621 1.21529-.4621 1.91889 0 .66705.1109 1.26099.3235 1.78184.2125.52084.536 1.00514.9703 1.46202.4343.45687.9703.90467 1.6172 1.35237.6469.4386 1.3862.9046 2.2179 1.3981l5.6833 3.3352c.989.5757 1.839 1.1331 2.569 1.6722.721.53 1.322 1.0965 1.784 1.6904.462.594.813 1.2245 1.044 1.9007.249.6762.36 1.4346.36 2.2844zm28.621-22.487737v1.827527h-10.406v28.34491h-4.159v-28.34491h-4.158c-1.848 0-3.272.42034-4.279 1.261-.998.84066-1.506 2.17475-1.506 4.00227h-.924v-3.42661c0-.45688.055-.90462.157-1.35237.111-.4386.305-.83152.6-1.16961.296-.33809.694-.61222 1.202-.82238.508-.21017 1.164-.319827 1.968-.319827zm21.218 0c.803 0 1.46.109657 1.968.319827.508.21016.906.48429 1.201.82238.296.33809.49.72187.601 1.16961.111.43861.157.89549.157 1.35237v3.42661h-.924c0-1.82752-.499-3.16161-1.506-4.00227-.998-.84066-2.431-1.261-4.279-1.261h-8.594v11.88801h12.484v1.8276h-12.484v12.8018h8.086c2.097 0 3.752-.3838 4.971-1.1422 1.22-.7584 2.181-2.056 2.893-3.8835l.924.2285-1.617 4.3403c-.25.7036-.656 1.261-1.229 1.6722s-1.322.6214-2.246.6214h-15.95v-24.68078c0-1.37064-.194-2.4763-.573-3.31696-.388-.84066-1.276-1.261-2.662-1.261h-.924v-.913764h19.703zm19.369 16.228437h-3.234v13.944h-4.159v-24.68072c0-1.37065-.194-2.47629-.573-3.31696-.388-.84066-1.275-1.26099-2.661-1.26099h-.924v-.913767h12.022c.989 0 2.144.082238 3.466.255857 1.321.16447 2.588.53911 3.789 1.12392 1.201.57567 2.218 1.40721 3.049 2.49459.832 1.07824 1.248 2.54026 1.248 4.36778 0 1.30669-.231 2.42149-.693 3.33519-.462.9138-1.054 1.6722-1.784 2.2662-.72.5939-1.524 1.06-2.402 1.398-.878.3381-1.719.594-2.523.7767l4.851 7.9955c.583.9777 1.137 1.7818 1.645 2.4214.509.6397 1.008 1.1697 1.507 1.5809.49.4111.989.7127 1.478.8954.49.1828 1.035.3016 1.618.3656v.9137c-.25.1188-.62.2285-1.137.3198-.508.0914-1.054.1371-1.645.1371-.804 0-1.553-.1097-2.246-.3198-.693-.2102-1.367-.5757-2.014-1.0965-.647-.5209-1.303-1.2062-1.969-2.056-.665-.8498-1.367-1.9006-2.107-3.1525zm.231-1.5991c.647 0 1.377-.1188 2.2-.3655.822-.2467 1.598-.6213 2.338-1.1239.739-.5026 1.367-1.1605 1.876-1.9646.508-.8041.767-1.791.767-2.95146 0-1.1879-.259-2.21132-.767-3.06112-.509-.8498-1.137-1.53512-1.876-2.05597-.74-.52084-1.516-.89548-2.338-1.1422-.814-.24672-1.553-.3655-2.2-.3655-.582 0-1.192.04568-1.83.13706-.628.09137-1.182.20103-1.645.31982v12.11647c.463.1188 1.008.2285 1.645.3199.638.0913 1.248.137 1.83.137zm37.862 7.8584c0 1.2793-.222 2.4397-.675 3.4723-.453 1.0325-1.09 1.928-1.922 2.6773s-1.839 1.3158-3.031 1.7179c-1.192.3929-2.523.5939-4.002.5939-1.266 0-2.523-.1279-3.77-.3929-1.248-.265-2.375-.6305-3.373-1.1239-.998-.4843-1.821-1.0783-2.449-1.7636-.629-.6853-.952-1.4529-.952-2.3118v-4.8886h.924c.518 3.0793 1.543 5.2907 3.059 6.6247 1.516 1.3433 3.576 2.0103 6.182 2.0103.795 0 1.553-.1005 2.274-.3015s1.358-.4934 1.903-.8955c.546-.402.998-.8863 1.331-1.462s.508-1.2519.508-2.0103c0-1.3432-.425-2.4854-1.275-3.4266s-2.116-1.9006-3.817-2.8784l-5.683-3.3352c-1.968-1.1605-3.364-2.3301-4.186-3.518-.813-1.1879-1.229-2.63164-1.229-4.34037 0-1.1879.212-2.257.647-3.19818.434-.94117 1.035-1.76355 1.829-2.44888.786-.68532 1.729-1.215298 2.819-1.580804 1.09-.365505 2.32-.5482633 3.678-.5482633 1.137 0 2.301.1187833 3.493.3655003 1.183.246716 2.255.603087 3.216 1.078247.952.47516 1.737 1.05082 2.357 1.73615.619.68532.924 1.45288.924 2.31182v4.88868h-.924c-.518-3.07943-1.516-5.27246-2.985-6.57914-1.47-1.30668-3.503-1.9646-6.109-1.9646-.674 0-1.33.10966-1.977.31982-.647.21017-1.211.52085-1.701.91377s-.887.88635-1.192 1.46203c-.305.57567-.462 1.21529-.462 1.91889 0 .66705.111 1.26099.324 1.78184.212.52084.535 1.00514.97 1.46202.434.45687.97.90467 1.617 1.35237.647.4386 1.386.9046 2.218 1.3981l5.683 3.3352c.989.5757 1.839 1.1331 2.569 1.6722.721.53 1.322 1.0965 1.784 1.6904.462.594.813 1.2245 1.044 1.9007.25.6762.361 1.4346.361 2.2844z" fill="#000"/></svg>

<svg width="219" height="32" viewBox="0 0 219 32" fill="none" xmlns="http://www.w3.org/2000/svg">
<path d="M11.5516 17.1422H8.31713V31.0862H4.15857V6.40548C4.15857 5.03483 3.9645 3.92919 3.58561 3.08852C3.19747 2.24786 2.31031 1.82753 0.924126 1.82753H0V0.913763H12.0229C13.0117 0.913763 14.1668 0.996001 15.4883 1.16962C16.8098 1.33409 18.0759 1.70873 19.2773 2.29354C20.4786 2.86921 21.4952 3.70075 22.3269 4.78813C23.1586 5.86637 23.5744 7.32839 23.5744 9.15591C23.5744 10.4626 23.3434 11.5774 22.8813 12.4911C22.4193 13.4049 21.8278 14.1633 21.0978 14.7573C20.377 15.3512 19.573 15.8173 18.6951 16.1553C17.8171 16.4934 16.9762 16.7493 16.1722 16.932L21.0239 24.9275C21.6061 25.9052 22.1605 26.7093 22.6688 27.3489C23.1771 27.9886 23.6761 28.5186 24.1751 28.9298C24.6649 29.3409 25.1639 29.6425 25.6537 29.8252C26.1435 30.008 26.6887 30.1268 27.2709 30.1908V31.1045C27.0214 31.2233 26.6518 31.333 26.1343 31.4243C25.626 31.5157 25.0808 31.5614 24.4893 31.5614C23.6853 31.5614 22.9368 31.4517 22.2437 31.2416C21.5506 31.0314 20.876 30.6659 20.2291 30.1451C19.5822 29.6242 18.9261 28.9389 18.2607 28.0891C17.5954 27.2393 16.893 26.1885 16.1537 24.9366L11.5516 17.1422ZM11.7826 15.5431C12.4295 15.5431 13.1595 15.4243 13.982 15.1776C14.8045 14.9309 15.5808 14.5563 16.3201 14.0537C17.0594 13.5511 17.6878 12.8932 18.196 12.0891C18.7043 11.285 18.9631 10.2981 18.9631 9.13764C18.9631 7.94974 18.7043 6.92632 18.196 6.07652C17.6878 5.22672 17.0594 4.5414 16.3201 4.02055C15.5808 3.49971 14.8045 3.12507 13.982 2.87835C13.1688 2.63163 12.4295 2.51285 11.7826 2.51285C11.2004 2.51285 10.5905 2.55853 9.95283 2.64991C9.32443 2.74128 8.76995 2.85094 8.30789 2.96973V15.0862C8.76995 15.205 9.31518 15.3147 9.95283 15.4061C10.5905 15.4974 11.2004 15.5431 11.7826 15.5431ZM29.1192 16C29.1192 13.7795 29.4519 11.687 30.1173 9.74072C30.7826 7.79441 31.7345 6.0948 32.982 4.64192C34.2296 3.19817 35.7359 2.05597 37.5103 1.23359C39.2846 0.411199 41.2622 0 43.4524 0C45.6426 0 47.6202 0.411199 49.3945 1.23359C51.1688 2.05597 52.6752 3.18904 53.9227 4.64192C55.1703 6.08567 56.1222 7.78527 56.7875 9.74072C57.4529 11.687 57.7856 13.7795 57.7856 16C57.7856 18.257 57.4529 20.3495 56.7875 22.2867C56.1222 24.2239 55.1703 25.9143 53.9227 27.3581C52.6752 28.8018 51.1688 29.944 49.3945 30.7664C47.6202 31.5888 45.6426 32 43.4524 32C41.2622 32 39.2846 31.5888 37.5103 30.7664C35.7359 29.944 34.2296 28.811 32.982 27.3581C31.7345 25.9052 30.7826 24.2239 30.1173 22.2867C29.4519 20.3495 29.1192 18.257 29.1192 16ZM53.165 16C53.165 13.8344 52.9432 11.8789 52.4903 10.1245C52.0375 8.37008 51.3999 6.88065 50.5682 5.64707C49.7365 4.41349 48.7199 3.4723 47.5185 2.81439C46.3172 2.15648 44.9587 1.82753 43.4524 1.82753C41.9461 1.82753 40.5876 2.15648 39.3862 2.81439C38.1849 3.4723 37.1683 4.41349 36.3366 5.64707C35.5049 6.88065 34.8673 8.37921 34.4144 10.1245C33.9616 11.8698 33.7398 13.8344 33.7398 16C33.7398 18.1656 33.9616 20.1211 34.4144 21.8755C34.8673 23.6299 35.5049 25.1194 36.3366 26.3529C37.1683 27.5865 38.1849 28.5277 39.3862 29.1856C40.5876 29.8435 41.9461 30.1725 43.4524 30.1725C44.9587 30.1725 46.3172 29.8435 47.5185 29.1856C48.7199 28.5277 49.7365 27.5865 50.5682 26.3529C51.3999 25.1194 52.0375 23.6299 52.4903 21.8755C52.9432 20.1211 53.165 18.1656 53.165 16ZM89.7326 31.0862C89.2058 31.2416 88.5959 31.3147 87.8844 31.3147C87.3576 31.3147 86.7477 31.2507 86.0546 31.1319C85.3615 31.0131 84.6499 30.7481 83.9291 30.3278C83.2083 29.9166 82.4967 29.3135 81.8036 28.5186C81.1105 27.7236 80.5191 26.6728 80.0201 25.3661L78.8649 22.3963H65.9179L62.2214 31.0771H60.1421L73.0891 0.904631H74.4753L84.6499 25.3569C85.0196 26.2067 85.3707 26.9378 85.6942 27.5317C86.0176 28.1256 86.378 28.6099 86.7754 28.9754C87.1728 29.341 87.6071 29.6151 88.0692 29.7978C88.5312 29.9806 89.0857 30.0994 89.7326 30.1633V31.0862ZM66.611 20.5688H77.9408L72.396 7.31011L66.611 20.5688ZM111.366 23.4015C111.366 24.6808 111.145 25.8412 110.692 26.8738C110.239 27.9063 109.601 28.8018 108.77 29.5511C107.938 30.3004 106.931 30.8669 105.738 31.269C104.546 31.6619 103.216 31.8629 101.737 31.8629C100.471 31.8629 99.2141 31.735 97.9666 31.47C96.719 31.205 95.5916 30.8395 94.5935 30.3461C93.5955 29.8618 92.773 29.2678 92.1446 28.5825C91.5162 27.8972 91.1927 27.1296 91.1927 26.2707V21.3821H92.1169C92.6344 24.4614 93.6601 26.6728 95.1757 28.0068C96.6913 29.3501 98.7521 30.0171 101.358 30.0171C102.153 30.0171 102.911 29.9166 103.631 29.7156C104.352 29.5146 104.99 29.2222 105.535 28.8201C106.08 28.4181 106.533 27.9338 106.866 27.3581C107.199 26.7824 107.374 26.1062 107.374 25.3478C107.374 24.0046 106.949 22.8624 106.099 21.9212C105.249 20.98 103.983 20.0206 102.282 19.0428L96.5989 15.7076C94.6305 14.5471 93.235 13.3775 92.4126 12.1896C91.5993 11.0017 91.1835 9.55796 91.1835 7.84923C91.1835 6.66133 91.396 5.59223 91.8304 4.65105C92.2647 3.70988 92.8654 2.8875 93.6601 2.20217C94.4456 1.51685 95.3883 0.986872 96.4787 0.621366C97.5692 0.255861 98.7983 0.0731027 100.157 0.0731027C101.293 0.0731027 102.458 0.191886 103.65 0.438603C104.833 0.685319 105.905 1.04169 106.866 1.51685C107.818 1.99201 108.603 2.56767 109.222 3.253C109.842 3.93832 110.147 4.70588 110.147 5.56482V10.4535H109.222C108.705 7.37407 107.707 5.18104 106.237 3.87436C104.768 2.56768 102.735 1.90976 100.129 1.90976C99.4544 1.90976 98.7983 2.01942 98.1514 2.22958C97.5045 2.43975 96.9408 2.75043 96.451 3.14335C95.9612 3.53627 95.5638 4.0297 95.2589 4.60538C94.9539 5.18105 94.7968 5.82067 94.7968 6.52427C94.7968 7.19132 94.9077 7.78526 95.1203 8.30611C95.3328 8.82695 95.6563 9.31125 96.0906 9.76813C96.5249 10.225 97.0609 10.6728 97.7078 11.1205C98.3547 11.5591 99.094 12.0251 99.9257 12.5186L105.609 15.8538C106.598 16.4295 107.448 16.9869 108.178 17.526C108.899 18.056 109.5 18.6225 109.962 19.2164C110.424 19.8104 110.775 20.4409 111.006 21.1171C111.255 21.7933 111.366 22.5517 111.366 23.4015ZM139.987 0.913763V2.74129H129.581V31.0862H125.422V2.74129H121.264C119.416 2.74129 117.992 3.16163 116.985 4.00229C115.987 4.84295 115.479 6.17704 115.479 8.00456H114.555V4.57795C114.555 4.12107 114.61 3.67333 114.712 3.22558C114.823 2.78698 115.017 2.39406 115.312 2.05597C115.608 1.71788 116.006 1.44375 116.514 1.23359C117.022 1.02342 117.678 0.913763 118.482 0.913763H139.987ZM161.205 0.913763C162.008 0.913763 162.665 1.02342 163.173 1.23359C163.681 1.44375 164.079 1.71788 164.374 2.05597C164.67 2.39406 164.864 2.77784 164.975 3.22558C165.086 3.66419 165.132 4.12107 165.132 4.57795V8.00456H164.208C164.208 6.17704 163.709 4.84295 162.702 4.00229C161.704 3.16163 160.271 2.74129 158.423 2.74129H149.829V14.6293H162.313V16.4569H149.829V29.2587H157.915C160.012 29.2587 161.667 28.8749 162.886 28.1165C164.106 27.3581 165.067 26.0605 165.779 24.233L166.703 24.4615L165.086 28.8018C164.836 29.5054 164.43 30.0628 163.857 30.474C163.284 30.8852 162.535 31.0954 161.611 31.0954H145.661V6.41462C145.661 5.04398 145.467 3.93832 145.088 3.09766C144.7 2.257 143.812 1.83666 142.426 1.83666H141.502V0.922896H161.205V0.913763ZM180.574 17.1422H177.34V31.0862H173.181V6.40548C173.181 5.03483 172.987 3.92919 172.608 3.08852C172.22 2.24786 171.333 1.82753 169.947 1.82753H169.023V0.913763H181.045C182.034 0.913763 183.189 0.996001 184.511 1.16962C185.832 1.33409 187.099 1.70873 188.3 2.29354C189.501 2.86921 190.518 3.70075 191.349 4.78813C192.181 5.86637 192.597 7.32839 192.597 9.15591C192.597 10.4626 192.366 11.5774 191.904 12.4911C191.442 13.4049 190.85 14.1633 190.12 14.7573C189.4 15.3512 188.596 15.8173 187.718 16.1553C186.84 16.4934 185.999 16.7493 185.195 16.932L190.046 24.9275C190.629 25.9052 191.183 26.7093 191.691 27.3489C192.2 27.9886 192.699 28.5186 193.198 28.9298C193.688 29.3409 194.187 29.6425 194.676 29.8252C195.166 30.008 195.711 30.1268 196.294 30.1908V31.1045C196.044 31.2233 195.674 31.333 195.157 31.4243C194.649 31.5157 194.103 31.5614 193.512 31.5614C192.708 31.5614 191.959 31.4517 191.266 31.2416C190.573 31.0314 189.899 30.6659 189.252 30.1451C188.605 29.6242 187.949 28.9389 187.283 28.0891C186.618 27.2393 185.916 26.1885 185.176 24.9366L180.574 17.1422ZM180.805 15.5431C181.452 15.5431 182.182 15.4243 183.005 15.1776C183.827 14.9309 184.603 14.5563 185.343 14.0537C186.082 13.5511 186.71 12.8932 187.219 12.0891C187.727 11.285 187.986 10.2981 187.986 9.13764C187.986 7.94974 187.727 6.92632 187.219 6.07652C186.71 5.22672 186.082 4.5414 185.343 4.02055C184.603 3.49971 183.827 3.12507 183.005 2.87835C182.191 2.63163 181.452 2.51285 180.805 2.51285C180.223 2.51285 179.613 2.55853 178.975 2.64991C178.347 2.74128 177.793 2.85094 177.33 2.96973V15.0862C177.793 15.205 178.338 15.3147 178.975 15.4061C179.613 15.4974 180.223 15.5431 180.805 15.5431ZM218.667 23.4015C218.667 24.6808 218.445 25.8412 217.992 26.8738C217.539 27.9063 216.902 28.8018 216.07 29.5511C215.238 30.3004 214.231 30.8669 213.039 31.269C211.847 31.6619 210.516 31.8629 209.037 31.8629C207.771 31.8629 206.514 31.735 205.267 31.47C204.019 31.205 202.892 30.8395 201.894 30.3461C200.896 29.8618 200.073 29.2678 199.445 28.5825C198.816 27.8972 198.493 27.1296 198.493 26.2707V21.3821H199.417C199.935 24.4614 200.96 26.6728 202.476 28.0068C203.992 29.3501 206.052 30.0171 208.658 30.0171C209.453 30.0171 210.211 29.9166 210.932 29.7156C211.653 29.5146 212.29 29.2222 212.835 28.8201C213.381 28.4181 213.833 27.9338 214.166 27.3581C214.499 26.7824 214.674 26.1062 214.674 25.3478C214.674 24.0046 214.249 22.8624 213.399 21.9212C212.549 20.98 211.283 20.0206 209.582 19.0428L203.899 15.7076C201.931 14.5471 200.535 13.3775 199.713 12.1896C198.9 11.0017 198.484 9.55796 198.484 7.84923C198.484 6.66133 198.696 5.59223 199.131 4.65105C199.565 3.70988 200.166 2.8875 200.96 2.20217C201.746 1.51685 202.689 0.986872 203.779 0.621366C204.869 0.255861 206.099 0.0731027 207.457 0.0731027C208.594 0.0731027 209.758 0.191886 210.95 0.438603C212.133 0.685319 213.205 1.04169 214.166 1.51685C215.118 1.99201 215.903 2.56767 216.523 3.253C217.142 3.93832 217.447 4.70588 217.447 5.56482V10.4535H216.523C216.005 7.37407 215.007 5.18104 213.538 3.87436C212.068 2.56768 210.035 1.90976 207.429 1.90976C206.755 1.90976 206.099 2.01942 205.452 2.22958C204.805 2.43975 204.241 2.75043 203.751 3.14335C203.261 3.53627 202.864 4.0297 202.559 4.60538C202.254 5.18105 202.097 5.82067 202.097 6.52427C202.097 7.19132 202.208 7.78526 202.421 8.30611C202.633 8.82695 202.956 9.31125 203.391 9.76813C203.825 10.225 204.361 10.6728 205.008 11.1205C205.655 11.5591 206.394 12.0251 207.226 12.5186L212.909 15.8538C213.898 16.4295 214.748 16.9869 215.478 17.526C216.199 18.056 216.8 18.6225 217.262 19.2164C217.724 19.8104 218.075 20.4409 218.306 21.1171C218.556 21.7933 218.667 22.5517 218.667 23.4015Z" fill="black"/>
</svg>
